packages/ui-solid/icons/qr_24.svg

<svg width="24" height="24" viewBox="0 0 24 24" fill="none" xmlns="http://www.w3.org/2000/svg">
<path fill-rule="evenodd" clip-rule="evenodd" d="M6.96424 2.48363H7.0433C7.67724 2.48361 8.21192 2.4836 8.64825 2.52262C9.10555 2.56352 9.54192 2.65279 9.94944 2.88497C10.4115 3.14823 10.7967 3.52774 11.0651 3.98653C11.3027 4.39261 11.394 4.82791 11.4357 5.2822C11.4754 5.7144 11.4754 6.24343 11.4754 6.86789V6.94855C11.4754 7.57301 11.4754 8.10205 11.4357 8.53424C11.394 8.98853 11.3027 9.42383 11.0651 9.82992C10.7967 10.2887 10.4115 10.6682 9.94944 10.9315C9.54192 11.1637 9.10555 11.2529 8.64825 11.2938C8.21193 11.3328 7.67725 11.3328 7.04332 11.3328H6.96423C6.3303 11.3328 5.79562 11.3328 5.3593 11.2938C4.902 11.2529 4.46562 11.1637 4.05811 10.9315C3.59603 10.6682 3.21085 10.2887 2.94244 9.82992C2.70486 9.42383 2.61354 8.98853 2.57181 8.53424C2.53212 8.10204 2.53213 7.573 2.53215 6.94852V6.86793C2.53213 6.24345 2.53212 5.7144 2.57181 5.2822C2.61354 4.82791 2.70486 4.39261 2.94244 3.98653C3.21085 3.52774 3.59603 3.14823 4.0581 2.88497C4.46562 2.65279 4.902 2.56352 5.3593 2.52262C5.79562 2.4836 6.33031 2.48361 6.96424 2.48363ZM5.51965 4.31547C5.18501 4.3454 5.03893 4.3978 4.94917 4.44894C4.7597 4.55689 4.60383 4.7113 4.49607 4.89549C4.44655 4.98013 4.39432 5.11961 4.36427 5.44683C4.33304 5.78688 4.33215 6.23261 4.33215 6.90822C4.33215 7.58383 4.33304 8.02957 4.36427 8.36961C4.39432 8.69683 4.44655 8.83631 4.49607 8.92095C4.60383 9.10514 4.7597 9.25955 4.94917 9.36751C5.03893 9.41865 5.18501 9.47105 5.51965 9.50098C5.86622 9.53197 6.31981 9.53281 7.00377 9.53281C7.68774 9.53281 8.14133 9.53197 8.4879 9.50098C8.82254 9.47105 8.96861 9.41865 9.05838 9.36751C9.24785 9.25955 9.40372 9.10514 9.51147 8.92095C9.561 8.83631 9.61323 8.69683 9.64328 8.36961C9.67451 8.02957 9.6754 7.58383 9.6754 6.90822C9.6754 6.23261 9.67451 5.78688 9.64328 5.44683C9.61323 5.11961 9.561 4.98013 9.51147 4.89549C9.40372 4.7113 9.24785 4.55689 9.05837 4.44894C8.96862 4.3978 8.82254 4.3454 8.4879 4.31547C8.14133 4.28447 7.68774 4.28363 7.00377 4.28363C6.31981 4.28363 5.86622 4.28447 5.51965 4.31547ZM16.9648 2.48363H17.0438C17.6778 2.48361 18.2125 2.4836 18.6488 2.52262C19.1061 2.56352 19.5425 2.65279 19.95 2.88497C20.4121 3.14823 20.7972 3.52774 21.0657 3.98653C21.3032 4.39261 21.3946 4.82791 21.4363 5.2822C21.476 5.7144 21.476 6.24345 21.4759 6.86794V6.94851C21.476 7.57299 21.476 8.10204 21.4363 8.53424C21.3946 8.98853 21.3032 9.42383 21.0657 9.82992C20.7972 10.2887 20.4121 10.6682 19.95 10.9315C19.5425 11.1637 19.1061 11.2529 18.6488 11.2938C18.2125 11.3328 17.6778 11.3328 17.0439 11.3328H16.9648C16.3308 11.3328 15.7962 11.3328 15.3598 11.2938C14.9025 11.2529 14.4662 11.1637 14.0586 10.9315C13.5966 10.6682 13.2114 10.2887 12.943 9.82992C12.7054 9.42383 12.6141 8.98853 12.5724 8.53424C12.5327 8.10204 12.5327 7.57299 12.5327 6.94851V6.86794C12.5327 6.24345 12.5327 5.71441 12.5724 5.2822C12.6141 4.82791 12.7054 4.39261 12.943 3.98653C13.2114 3.52774 13.5966 3.14823 14.0586 2.88497C14.4662 2.65279 14.9025 2.56352 15.3598 2.52262C15.7962 2.4836 16.3308 2.48361 16.9648 2.48363ZM15.5202 4.31547C15.1855 4.3454 15.0395 4.3978 14.9497 4.44894C14.7602 4.55689 14.6044 4.7113 14.4966 4.89549C14.4471 4.98013 14.3949 5.11961 14.3648 5.44683C14.3336 5.78688 14.3327 6.23261 14.3327 6.90822C14.3327 7.58383 14.3336 8.02957 14.3648 8.36961C14.3949 8.69683 14.4471 8.83631 14.4966 8.92095C14.6044 9.10514 14.7602 9.25955 14.9497 9.36751C15.0395 9.41865 15.1855 9.47105 15.5202 9.50098C15.8668 9.53197 16.3203 9.53281 17.0043 9.53281C17.6883 9.53281 18.1419 9.53197 18.4884 9.50098C18.8231 9.47105 18.9692 9.41865 19.0589 9.36751C19.2484 9.25955 19.4043 9.10514 19.512 8.92095C19.5615 8.83631 19.6138 8.69683 19.6438 8.36961C19.6751 8.02957 19.6759 7.58383 19.6759 6.90822C19.6759 6.23261 19.6751 5.78688 19.6438 5.44683C19.6138 5.11961 19.5615 4.98013 19.512 4.89549C19.4043 4.7113 19.2484 4.55689 19.0589 4.44894C18.9692 4.3978 18.8231 4.3454 18.4884 4.31547C18.1419 4.28447 17.6883 4.28363 17.0043 4.28363C16.3203 4.28363 15.8668 4.28447 15.5202 4.31547ZM6.96423 12.3525H7.04332C7.67725 12.3525 8.21193 12.3525 8.64825 12.3915C9.10555 12.4324 9.54192 12.5216 9.94944 12.7538C10.4115 13.0171 10.7967 13.3966 11.0651 13.8554C11.3027 14.2615 11.394 14.6968 11.4357 15.1511C11.4754 15.5833 11.4754 16.1123 11.4754 16.7368V16.8174C11.4754 17.4419 11.4754 17.9709 11.4357 18.4031C11.394 18.8574 11.3027 19.2927 11.0651 19.6988C10.7967 20.1576 10.4115 20.5371 9.94944 20.8003C9.54193 21.0325 9.10555 21.1218 8.64825 21.1627C8.21192 21.2017 7.67723 21.2017 7.04327 21.2017H6.96427C6.33032 21.2017 5.79563 21.2017 5.3593 21.1627C4.902 21.1218 4.46562 21.0325 4.05811 20.8003C3.59604 20.5371 3.21085 20.1576 2.94244 19.6988C2.70486 19.2927 2.61354 18.8574 2.57181 18.4031C2.53212 17.9709 2.53213 17.4419 2.53215 16.8174V16.7368C2.53213 16.1123 2.53212 15.5833 2.57181 15.1511C2.61354 14.6968 2.70486 14.2615 2.94244 13.8554C3.21085 13.3966 3.59603 13.0171 4.0581 12.7538C4.46562 12.5216 4.902 12.4324 5.3593 12.3915C5.79562 12.3525 6.3303 12.3525 6.96423 12.3525ZM5.51965 14.1843C5.18501 14.2143 5.03893 14.2667 4.94917 14.3178C4.7597 14.4257 4.60383 14.5802 4.49607 14.7643C4.44655 14.849 4.39432 14.9885 4.36427 15.3157C4.33304 15.6557 4.33215 16.1015 4.33215 16.7771C4.33215 17.4527 4.33304 17.8984 4.36427 18.2385C4.39432 18.5657 4.44655 18.7052 4.49607 18.7898C4.60383 18.974 4.7597 19.1284 4.94917 19.2364C5.03893 19.2875 5.18501 19.3399 5.51965 19.3698C5.86622 19.4008 6.31981 19.4017 7.00377 19.4017C7.68774 19.4017 8.14133 19.4008 8.4879 19.3698C8.82254 19.3399 8.96861 19.2875 9.05838 19.2364C9.24785 19.1284 9.40372 18.974 9.51147 18.7898C9.561 18.7052 9.61323 18.5657 9.64328 18.2385C9.67451 17.8984 9.6754 17.4527 9.6754 16.7771C9.6754 16.1015 9.67451 15.6557 9.64328 15.3157C9.61323 14.9885 9.561 14.849 9.51147 14.7643C9.40372 14.5802 9.24785 14.4257 9.05837 14.3178C8.96861 14.2667 8.82254 14.2143 8.4879 14.1843C8.14133 14.1533 7.68774 14.1525 7.00377 14.1525C6.31981 14.1525 5.86622 14.1533 5.51965 14.1843Z" fill="#007AFF"/>
<path d="M14.7468 13.5283C15.3149 13.5283 15.7754 13.9828 15.7754 14.5434C15.7754 15.104 15.3149 15.5585 14.7468 15.5585C14.1787 15.5585 13.7181 15.104 13.7181 14.5434C13.7181 13.9828 14.1787 13.5283 14.7468 13.5283Z" fill="#007AFF"/>
<path d="M17.1469 15.8969C17.715 15.8969 18.1755 16.3513 18.1755 16.912C18.1755 17.4726 17.715 17.927 17.1469 17.927C16.5788 17.927 16.1183 17.4726 16.1183 16.912C16.1183 16.3513 16.5788 15.8969 17.1469 15.8969Z" fill="#007AFF"/>
<path d="M19.547 13.5283C20.1151 13.5283 20.5757 13.9828 20.5757 14.5434C20.5757 15.104 20.1151 15.5585 19.547 15.5585C18.9789 15.5585 18.5184 15.104 18.5184 14.5434C18.5184 13.9828 18.9789 13.5283 19.547 13.5283Z" fill="#007AFF"/>
<path d="M14.7468 18.2654C15.3149 18.2654 15.7754 18.7199 15.7754 19.2805C15.7754 19.8411 15.3149 20.2956 14.7468 20.2956C14.1787 20.2956 13.7181 19.8411 13.7181 19.2805C13.7181 18.7199 14.1787 18.2654 14.7468 18.2654Z" fill="#007AFF"/>
<path d="M19.547 18.2654C20.1151 18.2654 20.5757 18.7199 20.5757 19.2805C20.5757 19.8411 20.1151 20.2956 19.547 20.2956C18.9789 20.2956 18.5184 19.8411 18.5184 19.2805C18.5184 18.7199 18.9789 18.2654 19.547 18.2654Z" fill="#007AFF"/>
</svg>

<svg xmlns="http://www.w3.org/2000/svg" width="24" height="24" fill="none"><path fill="currentColor" fill-rule="evenodd" d="M6.964 2.484h.08c.633 0 1.168 0 1.604.039.458.04.894.13 1.301.362.463.263.848.643 1.116 1.102.238.406.329.84.37 1.295.04.432.04.961.04 1.586v.08c0 .625 0 1.154-.04 1.586-.041.455-.132.89-.37 1.296a3.03 3.03 0 0 1-1.115 1.1c-.407.233-.843.322-1.3.363-.437.039-.972.039-1.606.039h-.079c-.634 0-1.168 0-1.605-.04-.457-.04-.893-.13-1.3-.361A3.03 3.03 0 0 1 2.941 9.83c-.237-.406-.328-.841-.37-1.296-.04-.432-.04-.961-.04-1.585v-.081c0-.625 0-1.154.04-1.586.042-.454.133-.89.37-1.295a3.03 3.03 0 0 1 1.116-1.102c.408-.232.844-.321 1.301-.362.437-.04.971-.04 1.605-.04M5.52 4.315c-.335.03-.481.083-.57.134a1.23 1.23 0 0 0-.454.446c-.05.085-.102.225-.132.552-.031.34-.032.786-.032 1.461 0 .676.001 1.122.032 1.462.03.327.083.466.132.551.108.184.264.339.453.447.09.05.236.103.57.133.347.031.8.032 1.485.032.684 0 1.137-.001 1.484-.032.335-.03.48-.082.57-.133a1.23 1.23 0 0 0 .453-.447c.05-.085.102-.224.132-.551.032-.34.032-.786.032-1.462s0-1.121-.032-1.461c-.03-.327-.082-.467-.132-.552a1.23 1.23 0 0 0-.453-.446c-.09-.051-.235-.104-.57-.134-.347-.03-.8-.031-1.484-.031s-1.138 0-1.484.031m11.445-1.831h.079c.634 0 1.168 0 1.605.039.457.04.893.13 1.301.362a3.03 3.03 0 0 1 1.116 1.102c.237.406.329.84.37 1.295.04.432.04.961.04 1.586v.08c0 .625 0 1.154-.04 1.586-.041.455-.133.89-.37 1.296a3.03 3.03 0 0 1-1.116 1.101c-.407.233-.844.322-1.301.363-.437.039-.971.039-1.605.039h-.08c-.633 0-1.168 0-1.604-.04-.457-.04-.894-.13-1.301-.361a3.03 3.03 0 0 1-1.116-1.102c-.238-.406-.329-.841-.37-1.296-.04-.432-.04-.961-.04-1.585v-.081c0-.625 0-1.154.04-1.586.041-.454.132-.89.37-1.295a3.03 3.03 0 0 1 1.116-1.102c.407-.232.844-.321 1.3-.362.437-.04.972-.04 1.606-.04M15.52 4.315c-.335.03-.48.083-.57.134a1.23 1.23 0 0 0-.453.446c-.05.085-.102.225-.132.552-.031.34-.032.786-.032 1.461 0 .676 0 1.122.032 1.462.03.327.082.466.132.551.107.184.263.339.453.447.09.05.236.103.57.133.347.031.8.032 1.484.032s1.138-.001 1.484-.032c.335-.03.481-.082.57-.133.19-.108.346-.263.454-.447.05-.085.102-.224.132-.551.031-.34.032-.786.032-1.462s0-1.121-.032-1.461c-.03-.327-.082-.467-.132-.552a1.23 1.23 0 0 0-.453-.446c-.09-.051-.236-.104-.57-.134-.347-.03-.8-.031-1.485-.031-.684 0-1.137 0-1.484.031m-8.556 8.037h.08c.633 0 1.168 0 1.604.04.458.04.894.13 1.301.362a3.03 3.03 0 0 1 1.116 1.101c.238.406.329.842.37 1.296.04.432.04.961.04 1.586v.08c0 .625 0 1.154-.04 1.586-.041.454-.132.89-.37 1.296A3 3 0 0 1 9.95 20.8c-.407.232-.843.322-1.3.363-.437.039-.972.039-1.606.039h-.079c-.634 0-1.168 0-1.605-.04-.457-.04-.893-.13-1.3-.362a3 3 0 0 1-1.119-1.1c-.237-.406-.328-.842-.37-1.296-.04-.432-.04-.961-.04-1.586v-.08c0-.625 0-1.154.04-1.586.042-.454.133-.89.37-1.296a3.03 3.03 0 0 1 1.116-1.101c.408-.232.844-.322 1.301-.362.437-.04.971-.04 1.605-.04M5.52 14.185c-.335.03-.481.083-.57.134a1.23 1.23 0 0 0-.454.446c-.05.085-.102.225-.132.552-.031.34-.032.786-.032 1.461 0 .676.001 1.121.032 1.461.03.328.083.467.132.552.108.184.264.338.453.446.09.052.236.104.57.134.347.03.8.032 1.485.032.684 0 1.137-.001 1.484-.032.335-.03.48-.082.57-.134a1.23 1.23 0 0 0 .453-.446c.05-.085.102-.224.132-.552.032-.34.032-.785.032-1.46 0-.676 0-1.122-.032-1.462-.03-.328-.082-.467-.132-.552a1.23 1.23 0 0 0-.453-.446c-.09-.051-.235-.104-.57-.134-.347-.03-.8-.031-1.484-.031s-1.138 0-1.484.031" clip-rule="evenodd"/><path fill="currentColor" d="M14.747 13.528c.568 0 1.028.455 1.028 1.015 0 .561-.46 1.016-1.028 1.016a1.02 1.02 0 0 1-1.029-1.016c0-.56.46-1.015 1.029-1.015m2.4 2.369c.568 0 1.029.454 1.029 1.015s-.461 1.015-1.03 1.015a1.02 1.02 0 0 1-1.028-1.015c0-.56.46-1.015 1.029-1.015m2.4-2.369c.568 0 1.029.455 1.029 1.015 0 .561-.46 1.016-1.029 1.016a1.02 1.02 0 0 1-1.029-1.016c0-.56.46-1.015 1.029-1.015m-4.8 4.737c.568 0 1.028.455 1.028 1.015 0 .561-.46 1.016-1.028 1.016a1.02 1.02 0 0 1-1.029-1.015c0-.561.46-1.016 1.029-1.016m4.8 0c.568 0 1.029.455 1.029 1.015 0 .561-.46 1.016-1.029 1.016a1.02 1.02 0 0 1-1.029-1.015c0-.561.46-1.016 1.029-1.016"/></svg>
